static/assets/images/exchanges/alien-base.svg

<svg xmlns="http://www.w3.org/2000/svg" fill="none" viewBox="0 0 288 256"><path fill="#0C6CF3" d="M255.54 255.821c-38.3-4.188-72.234-13.139-99.649-27.603a9.54 9.54 0 0 1-3.511-3.15 9.57 9.57 0 0 1-.835-9.116 9.56 9.56 0 0 1 2.881-3.738c26.611-20.825 42.249-47.651 42.249-79.414 0-25.646-14.217-46.442-53.062-46.442S90.55 107.154 90.55 132.8c0 31.763 15.653 58.618 42.249 79.414a9.56 9.56 0 0 1 3.624 8.403 9.6 9.6 0 0 1-1.577 4.451 9.54 9.54 0 0 1-3.512 3.15c-27.414 14.435-61.348 23.415-99.648 27.603-23.28 2.548-39.521-22.667-27.76-42.974L118.812 14.313c11.058-19.084 38.53-19.084 49.573 0l114.914 198.534c11.747 20.307-4.48 45.522-27.759 42.974m-104.216-80.234c.316-4.044 1.738-13.039 8.531-19.026 6.907-6.131 17.376-7.311 21.785-7.541a1.91 1.91 0 0 1 2.01 2.015c-.301 4.044-1.737 13.039-8.516 19.04-6.921 6.117-17.405 7.311-21.799 7.541a1.9 1.9 0 0 1-1.892-1.236 1.9 1.9 0 0 1-.119-.793m-15.423 0a1.9 1.9 0 0 1-1.222 1.896 1.9 1.9 0 0 1-.788.119c-4.409-.216-14.878-1.439-21.8-7.527-6.778-6.001-8.2-14.996-8.516-19.026a1.9 1.9 0 0 1 .546-1.472 1.9 1.9 0 0 1 1.465-.557c4.408.216 14.877 1.439 21.799 7.541 6.778 5.987 8.2 14.982 8.516 19.026"/></svg>

<svg width="288" height="256" viewBox="0 0 288 256" fill="none" xmlns="http://www.w3.org/2000/svg">
<path d="M255.54 255.821C217.24 251.633 183.306 242.682 155.891 228.218C154.476 227.479 153.269 226.396 152.38 225.068C151.491 223.739 150.948 222.209 150.803 220.617C150.657 219.024 150.912 217.42 151.545 215.952C152.178 214.484 153.169 213.199 154.426 212.214C181.037 191.389 196.675 164.563 196.675 132.8C196.675 107.154 182.458 86.358 143.613 86.358C104.767 86.358 90.55 107.154 90.55 132.8C90.55 164.563 106.203 191.418 132.799 212.214C134.056 213.199 135.047 214.484 135.68 215.952C136.313 217.42 136.569 219.024 136.423 220.617C136.277 222.209 135.735 223.739 134.846 225.068C133.957 226.396 132.749 227.479 131.334 228.218C103.92 242.653 69.9855 251.633 31.6855 255.821C8.40687 258.369 -7.83506 233.154 3.92634 212.847L118.812 14.3126C129.87 -4.77088 157.342 -4.77088 168.385 14.3126L283.299 212.847C295.046 233.154 278.819 258.369 255.54 255.821ZM151.324 175.587C151.64 171.543 153.062 162.548 159.855 156.561C166.762 150.43 177.231 149.25 181.64 149.02C181.908 149.005 182.176 149.047 182.426 149.144C182.677 149.24 182.904 149.388 183.094 149.578C183.283 149.768 183.431 149.996 183.527 150.247C183.623 150.498 183.665 150.766 183.65 151.035C183.349 155.079 181.913 164.074 175.134 170.075C168.213 176.192 157.729 177.386 153.335 177.616C153.066 177.631 152.797 177.589 152.545 177.492C152.293 177.395 152.065 177.245 151.875 177.054C151.685 176.862 151.538 176.632 151.443 176.38C151.348 176.127 151.308 175.857 151.324 175.587ZM135.901 175.587C135.918 175.856 135.877 176.126 135.782 176.378C135.687 176.63 135.54 176.859 135.35 177.049C135.159 177.24 134.931 177.388 134.679 177.483C134.428 177.578 134.159 177.619 133.891 177.602C129.482 177.386 119.013 176.163 112.091 170.075C105.313 164.074 103.891 155.079 103.575 151.049C103.556 150.779 103.595 150.508 103.689 150.254C103.783 150 103.93 149.769 104.121 149.577C104.311 149.385 104.54 149.236 104.793 149.14C105.046 149.044 105.316 149.003 105.586 149.02C109.994 149.236 120.463 150.459 127.385 156.561C134.163 162.548 135.585 171.543 135.901 175.587Z" fill="#0C6CF3"/>
</svg>
